TCanvas/fit1_4.svg

<svg xmlns="http://www.w3.org/2000/svg" viewBox="0 0 1200 800" preserveAspectRatio="none" width="1200" height="800">
 <path d="M0,0H1200V800H0Z" style="fill: white;"></path>
 <g>
  <g transform="translate(120,80)">
   <path d="M0,0H960V640H0Z" style="fill: white; stroke: black; stroke-width: 1;"></path>
   <svg x="0" y="0" overflow="hidden" width="960" height="640" viewBox="0 0 960 640">
    <g>
     <path d="M0,629h10v11h9v-11h10v-7h9v4h10v-8h10v-10h19v28h9v-18h10v-14h10v7h9v-10h10v-4h9v-4h10v-14h10v-25h9v4h10v-4h9v18h10v-40h10v-3h9v-14h10v-40h9v22h10v-43h10v14h9v-18h10v-36h9v-7h10v-57h10v-8h9v-18h10v11h9v-50h10v-11h10v-25h9v47h10v-25h9v-29h10v-36h10v29h9v-50h10v-83h9v36h10v-32h10v68h9v-29h10v4h9v-61h10v100h10v-39h9v-119h10v104h9v15h10v3h10v54h9v-107h10v136h9v21h10v-61h10v69h9v-61h10v125h9v-64h20v104h9v-69h10v40h9v36h10v46h10v15h9v-8h10v11h9v43h10v-21h10v10h9v40h10v21h9v-32h10v36h10v29h19v14h9v-14h10v25h29v14h9v-3h10v14h29v7h9v-4h10v4h10v14h19v-3h9v-15h10" style="stroke-linejoin: miter; stroke: #00009a; stroke-width: 1; fill: none;"></path>
    </g>
    <g>
     <path d="M0,635.14C1.58,634.98,6.44,634.51,9.6,634.16S16.05,633.42,19.2,633.01S25.67,632.14,28.8,631.67S35.3,630.65,38.4,630.1S44.93,628.9,48,628.27S54.57,626.88,57.6,626.17S64.22,624.55,67.2,623.74S73.88,621.87,76.8,620.96S83.55,618.8,86.4,617.79S93.24,615.29,96,614.19S102.94,611.31,105.6,610.11S112.66,606.8,115.2,605.51S122.38,601.72,124.8,600.35S132.12,596.03,134.4,594.59S141.86,589.69,144,588.18S151.6,582.64,153.6,581.09S161.35,574.85,163.2,573.27S171.09,566.28,172.8,564.69S180.83,556.92,182.4,555.32S190.56,546.73,192,545.14S200.28,535.7,201.6,534.12S209.99,523.82,211.2,522.27S219.68,511.09,220.8,509.56S229.37,497.51,230.4,496.02S239.05,483.12,240,481.65S248.72,467.93,249.6,466.5S258.37,451.99,259.2,450.59S268.02,435.36,268.8,433.99S277.66,418.11,278.4,416.76S287.29,400.3,288,398.98S296.92,382.05,297.6,380.74S306.53,363.44,307.2,362.14S316.14,344.6,316.8,343.31S325.75,325.66,326.4,324.37S335.34,306.76,336,305.46S344.93,288.03,345.6,286.72S354.5,269.63,355.2,268.31S364.07,251.72,364.8,250.38S373.62,234.46,374.4,233.08S383.15,218,384,216.59S392.67,202.5,393.6,201.05S402.16,188.11,403.2,186.61S411.61,174.97,412.8,173.42S421.02,163.21,422.4,161.62S430.38,152.93,432,151.33S439.68,144.22,441.6,142.66S448.91,137.14,451.2,135.69S458.13,131.7,460.8,130.51S467.39,127.93,470.4,127.18S476.81,125.87,480,125.72S486.45,125.76,489.6,126.16S496.33,127.52,499.2,128.49S506.31,131.36,508.8,132.69S516.29,137.19,518.4,138.7S526.23,144.88,528,146.47S536.1,154.31,537.6,155.91S545.92,165.35,547.2,166.91S555.68,177.85,556.8,179.37S565.41,191.68,566.4,193.16S575.11,206.69,576,208.12S584.79,222.73,585.6,224.13S594.44,239.65,595.2,241.01S604.08,257.29,604.8,258.62S613.71,275.48,614.4,276.8S623.33,294.08,624,295.38S632.94,312.92,633.6,314.22S642.55,331.87,643.2,333.16S652.14,350.77,652.8,352.06S661.73,369.49,662.4,370.8S671.31,387.92,672,389.24S680.88,405.95,681.6,407.28S690.44,423.46,691.2,424.82S700,440.38,700.8,441.77S709.55,456.64,710.4,458.06S719.09,472.18,720,473.62S728.61,486.94,729.6,488.41S738.13,500.89,739.2,502.4S747.64,514.02,748.8,515.56S757.14,526.3,758.4,527.87S766.62,537.75,768,539.34S776.1,548.37,777.6,549.96S785.57,558.16,787.2,559.76S795.03,567.17,796.8,568.76S804.48,575.42,806.4,576.98S813.94,582.93,816,584.46S823.39,589.75,825.6,591.23S832.85,595.92,835.2,597.34S842.32,601.48,844.8,602.81S851.8,606.46,854.4,607.71S861.29,610.9,864,612.06S870.8,614.86,873.6,615.91S880.32,618.36,883.2,619.31S889.85,621.44,892.8,622.3S899.39,624.15,902.4,624.91S908.95,626.51,912,627.18S918.51,628.56,921.6,629.15S928.08,630.34,931.2,630.85S937.66,631.87,940.8,632.32S947.25,633.19,950.4,633.57S958.42,634.46,960,634.64" style="fill: none; stroke: red; stroke-width: 2;"></path>
    </g>
   </svg>
   <g>
    <g transform="translate(0,640)">
     <path d="M0,0h960M0,-24v24m32,-12v12m32,-12v12m32,-12v12m32,-12v12m32,-24v24m32,-12v12m32,-12v12m32,-12v12m32,-12v12m32,-24v24m32,-12v12m32,-12v12m32,-12v12m32,-12v12m32,-24v24m32,-12v12m32,-12v12m32,-12v12m32,-12v12m32,-24v24m32,-12v12m32,-12v12m32,-12v12m32,-12v12m32,-24v24m32,-12v12m32,-12v12m32,-12v12m32,-12v12m32,-24v24" style="stroke: black; stroke-width: 1;"></path>
     <g font-family="Arial" font-size="28" space="preserve" fill="black" text-anchor="middle">
      <text dy=".8em" transform="translate(0,6)">
       -3
      </text>
      <text dy=".8em" transform="translate(160,6)">
       -2
      </text>
      <text dy=".8em" transform="translate(320,6)">
       -1
      </text>
      <text dy=".8em" transform="translate(480,6)">
       0
      </text>
      <text dy=".8em" transform="translate(640,6)">
       1
      </text>
      <text dy=".8em" transform="translate(800,6)">
       2
      </text>
      <text dy=".8em" transform="translate(960,6)">
       3
      </text>
     </g>
    </g>
    <g>
     <path d="M0,0v640M36,640h-36m18,-18h-18m18,-18h-18m18,-18h-18m36,-18h-36m18,-18h-18m18,-18h-18m18,-17h-18m36,-18h-36m18,-18h-18m18,-18h-18m18,-18h-18m36,-18h-36m18,-18h-18m18,-18h-18m18,-18h-18m36,-18h-36m18,-18h-18m18,-18h-18m18,-18h-18m36,-18h-36m18,-17h-18m18,-18h-18m18,-18h-18m36,-18h-36m18,-18h-18m18,-18h-18m18,-18h-18m36,-18h-36m18,-18h-18m18,-18h-18m18,-18h-18m36,-18h-36m18,-18h-18m18,-18h-18m18,-17h-18" style="stroke: black; stroke-width: 1;"></path>
     <g font-family="Arial" font-size="28" space="preserve" fill="black" text-anchor="end">
      <text dy=".4em" transform="translate(-4,640)">
       0
      </text>
      <text dy=".4em" transform="translate(-4,568)">
       20
      </text>
      <text dy=".4em" transform="translate(-4,497)">
       40
      </text>
      <text dy=".4em" transform="translate(-4,425)">
       60
      </text>
      <text dy=".4em" transform="translate(-4,353)">
       80
      </text>
      <text dy=".4em" transform="translate(-4,281)">
       100
      </text>
      <text dy=".4em" transform="translate(-4,210)">
       120
      </text>
      <text dy=".4em" transform="translate(-4,138)">
       140
      </text>
      <text dy=".4em" transform="translate(-4,66)">
       160
      </text>
     </g>
    </g>
   </g>
  </g>
  <g transform="translate(936,52)" font-family="Arial" font-size="23" space="preserve" fill="black">
   <path d="M0,0H240V128H0Z" style="fill: white; stroke: black; stroke-width: 1;"></path>
   <text text-anchor="middle" dy=".4em" transform="translate(120,16)">
    h
   </text>
   <text text-anchor="start" dy=".4em" transform="translate(12,48)">
    Entries
   </text>
   <text text-anchor="end" dy=".4em" transform="translate(228,48)">
    6000
   </text>
   <text text-anchor="start" dy=".4em" transform="translate(12,80)">
    Mean
   </text>
   <text text-anchor="end" dy=".4em" transform="translate(228,80)">
    0.009532
   </text>
   <text text-anchor="start" dy=".4em" transform="translate(12,112)">
    Std Dev
   </text>
   <text text-anchor="end" dy=".4em" transform="translate(228,112)">
    0.9967
   </text>
   <path d="M0,32h240" style="stroke: black; stroke-width: 1;"></path>
  </g>
  <g transform="translate(455,4)" font-family="Arial" font-size="39" space="preserve">
   <text fill="black" text-anchor="middle" dy=".4em" transform="translate(145,25)">
    My histogram
   </text>
  </g>
 </g>
</svg>

<svg xmlns="http://www.w3.org/2000/svg" viewBox="0 0 1200 800" preserveAspectRatio="none" width="1200" height="800">
 <path d="M0,0H1200V800H0Z" style="fill: white;"></path>
 <g>
  <g transform="translate(120,80)">
   <path d="M0,0H960V640H0Z" style="fill: white; stroke: black; stroke-width: 1;"></path>
   <svg x="0" y="0" overflow="hidden" width="960" height="640" viewBox="0 0 960 640">
    <g>
     <path d="M0,629h10v11h9v-11h10v-7h9v4h10v-8h10v-10h19v28h9v-18h10v-14h10v7h9v-10h10v-4h9v-4h10v-14h10v-25h9v4h10v-4h9v18h10v-40h10v-3h9v-14h10v-40h9v22h10v-43h10v14h9v-18h10v-36h9v-7h10v-57h10v-8h9v-18h10v11h9v-50h10v-11h10v-25h9v47h10v-25h9v-29h10v-36h10v29h9v-50h10v-83h9v36h10v-32h10v68h9v-29h10v4h9v-61h10v100h10v-39h9v-119h10v104h9v15h10v3h10v54h9v-107h10v136h9v21h10v-61h10v69h9v-61h10v125h9v-64h20v104h9v-69h10v40h9v36h10v46h10v15h9v-8h10v11h9v43h10v-21h10v10h9v40h10v21h9v-32h10v36h10v29h19v14h9v-14h10v25h29v14h9v-3h10v14h29v7h9v-4h10v4h10v14h19v-3h9v-15h10" style="stroke-linejoin: miter; stroke: #00009a; stroke-width: 1; fill: none;"></path>
    </g>
    <g>
     <path d="M0,635.14C1.58,634.98,6.44,634.51,9.6,634.16S16.05,633.42,19.2,633.01S25.67,632.14,28.8,631.67S35.3,630.65,38.4,630.1S44.93,628.9,48,628.27S54.57,626.88,57.6,626.17S64.22,624.55,67.2,623.74S73.88,621.87,76.8,620.96S83.55,618.8,86.4,617.79S93.24,615.29,96,614.19S102.94,611.31,105.6,610.11S112.66,606.8,115.2,605.51S122.38,601.72,124.8,600.35S132.12,596.03,134.4,594.59S141.86,589.69,144,588.18S151.6,582.64,153.6,581.09S161.35,574.85,163.2,573.27S171.09,566.28,172.8,564.69S180.83,556.92,182.4,555.32S190.56,546.73,192,545.14S200.28,535.7,201.6,534.12S209.99,523.82,211.2,522.27S219.68,511.09,220.8,509.56S229.37,497.51,230.4,496.02S239.05,483.12,240,481.65S248.72,467.93,249.6,466.5S258.37,451.99,259.2,450.59S268.02,435.36,268.8,433.99S277.66,418.11,278.4,416.76S287.29,400.3,288,398.98S296.92,382.05,297.6,380.74S306.53,363.44,307.2,362.14S316.14,344.6,316.8,343.31S325.75,325.66,326.4,324.37S335.34,306.76,336,305.46S344.93,288.03,345.6,286.72S354.5,269.63,355.2,268.31S364.07,251.72,364.8,250.38S373.62,234.46,374.4,233.08S383.15,218,384,216.59S392.67,202.5,393.6,201.05S402.16,188.11,403.2,186.61S411.61,174.97,412.8,173.42S421.02,163.21,422.4,161.62S430.38,152.93,432,151.33S439.68,144.22,441.6,142.66S448.91,137.14,451.2,135.69S458.13,131.7,460.8,130.51S467.39,127.93,470.4,127.18S476.81,125.87,480,125.72S486.45,125.76,489.6,126.16S496.33,127.52,499.2,128.49S506.31,131.36,508.8,132.69S516.29,137.19,518.4,138.7S526.23,144.88,528,146.47S536.1,154.31,537.6,155.91S545.92,165.35,547.2,166.91S555.68,177.85,556.8,179.37S565.41,191.68,566.4,193.16S575.11,206.69,576,208.12S584.79,222.73,585.6,224.13S594.44,239.65,595.2,241.01S604.08,257.29,604.8,258.62S613.71,275.48,614.4,276.8S623.33,294.08,624,295.38S632.94,312.92,633.6,314.22S642.55,331.87,643.2,333.16S652.14,350.77,652.8,352.06S661.73,369.49,662.4,370.8S671.31,387.92,672,389.24S680.88,405.95,681.6,407.28S690.44,423.46,691.2,424.82S700,440.38,700.8,441.77S709.55,456.64,710.4,458.06S719.09,472.18,720,473.62S728.61,486.94,729.6,488.41S738.13,500.89,739.2,502.4S747.64,514.02,748.8,515.56S757.14,526.3,758.4,527.87S766.62,537.75,768,539.34S776.1,548.37,777.6,549.96S785.57,558.16,787.2,559.76S795.03,567.17,796.8,568.76S804.48,575.42,806.4,576.98S813.94,582.93,816,584.46S823.39,589.75,825.6,591.23S832.85,595.92,835.2,597.34S842.32,601.48,844.8,602.81S851.8,606.46,854.4,607.71S861.29,610.9,864,612.06S870.8,614.86,873.6,615.91S880.32,618.36,883.2,619.31S889.85,621.44,892.8,622.3S899.39,624.15,902.4,624.91S908.95,626.51,912,627.18S918.51,628.56,921.6,629.15S928.08,630.34,931.2,630.85S937.66,631.87,940.8,632.32S947.25,633.19,950.4,633.57S958.42,634.46,960,634.64" style="fill: none; stroke: red; stroke-width: 2;"></path>
    </g>
   </svg>
   <g>
    <g transform="translate(0,640)">
     <path d="M0,0h960M0,-24V0M32,-12V0M64,-12V0M96,-12V0M128,-12V0M160,-24V0M192,-12V0M224,-12V0M256,-12V0M288,-12V0M320,-24V0M352,-12V0M384,-12V0M416,-12V0M448,-12V0M480,-24V0M512,-12V0M544,-12V0M576,-12V0M608,-12V0M640,-24V0M672,-12V0M704,-12V0M736,-12V0M768,-12V0M800,-24V0M832,-12V0M864,-12V0M896,-12V0M928,-12V0M960,-24V0" style="stroke: black; stroke-width: 1;"></path>
     <g font-family="Arial" font-size="28" space="preserve" fill="black" text-anchor="middle">
      <text dy=".8em" transform="translate(0,6)">
       -3
      </text>
      <text dy=".8em" transform="translate(160,6)">
       -2
      </text>
      <text dy=".8em" transform="translate(320,6)">
       -1
      </text>
      <text dy=".8em" transform="translate(480,6)">
       0
      </text>
      <text dy=".8em" transform="translate(640,6)">
       1
      </text>
      <text dy=".8em" transform="translate(800,6)">
       2
      </text>
      <text dy=".8em" transform="translate(960,6)">
       3
      </text>
     </g>
    </g>
    <g>
     <path d="M0,0v640M36,640H0M18,622H0M18,604H0M18,586H0M36,568H0M18,550H0M18,532H0M18,515H0M36,497H0M18,479H0M18,461H0M18,443H0M36,425H0M18,407H0M18,389H0M18,371H0M36,353H0M18,335H0M18,317H0M18,299H0M36,281H0M18,264H0M18,246H0M18,228H0M36,210H0M18,192H0M18,174H0M18,156H0M36,138H0M18,120H0M18,102H0M18,84H0M36,66H0M18,48H0M18,30H0M18,13H0" style="stroke: black; stroke-width: 1;"></path>
     <g font-family="Arial" font-size="28" space="preserve" fill="black" text-anchor="end">
      <text dy=".4em" transform="translate(-4,640)">
       0
      </text>
      <text dy=".4em" transform="translate(-4,568)">
       20
      </text>
      <text dy=".4em" transform="translate(-4,497)">
       40
      </text>
      <text dy=".4em" transform="translate(-4,425)">
       60
      </text>
      <text dy=".4em" transform="translate(-4,353)">
       80
      </text>
      <text dy=".4em" transform="translate(-4,281)">
       100
      </text>
      <text dy=".4em" transform="translate(-4,210)">
       120
      </text>
      <text dy=".4em" transform="translate(-4,138)">
       140
      </text>
      <text dy=".4em" transform="translate(-4,66)">
       160
      </text>
     </g>
    </g>
   </g>
  </g>
  <g transform="translate(936,52)" font-family="Arial" font-size="23" space="preserve" fill="black">
   <path d="M0,0H240V128H0Z" style="fill: white; stroke: black; stroke-width: 1;"></path>
   <text text-anchor="middle" dy=".4em" transform="translate(120,16)">
    h
   </text>
   <text text-anchor="start" dy=".4em" transform="translate(12,48)">
    Entries
   </text>
   <text text-anchor="end" dy=".4em" transform="translate(228,48)">
    6000
   </text>
   <text text-anchor="start" dy=".4em" transform="translate(12,80)">
    Mean
   </text>
   <text text-anchor="end" dy=".4em" transform="translate(228,80)">
    0.009532
   </text>
   <text text-anchor="start" dy=".4em" transform="translate(12,112)">
    Std Dev
   </text>
   <text text-anchor="end" dy=".4em" transform="translate(228,112)">
    0.9967
   </text>
   <path d="M0,32h240" style="stroke: black; stroke-width: 1;"></path>
  </g>
  <g transform="translate(455,4)" font-family="Arial" font-size="39" space="preserve">
   <text fill="black" text-anchor="middle" dy=".4em" transform="translate(145,25)">
    My histogram
   </text>
  </g>
 </g>
</svg>
